data/sunflower.svg

<svg width="60.382" height="14" viewBox="0 0 60.382 14" xmlns="http://www.w3.org/2000/svg"><path transform="translate(0 10.948) scale(.014 -.014)" d="m276 635q-150 0-150-113 0-31 7.5-51.5t27-35 53.5-24.5 87-22 89.5-26 59.5-35 33.5-51 10.5-73q0-213-221-213-37 0-82.5 4.5t-100.5 12.5l-36 5 8 64q137-18 207-18 148 0 148 139 0 28-7.5 47.5t-25 33-47 23-74.5 18.5q-58 12-99 27t-67 37.5-37.5 54.5-11.5 78q0 186 223 186 73 0 175-15l34-5-7-65q-70 8-119 12.5t-78 4.5z"/><path transform="translate(7.588 10.948) scale(.014 -.014)" d="m384 94v406h75v-500h-75v35q-75-45-148-45-51 0-84 12t-51.5 41-26 76.5-7.5 119.5v261h75v-260q0-54 4-89.5t15-56.5 32-29 54-8 67 9.5 52 18.5z"/><path transform="translate(15.022 10.948) scale(.014 -.014)" d="m147 406v-406h-75v500h74v-35q81 45 155 45 50 0 82.5-12.5t52-41.5 27-76 7.5-116v-264h-74v262q0 52-4.5 87t-16.5 56-33 29.5-54 8.5q-32 0-67.5-9.5t-54.5-18.5z"/><path transform="translate(22.54 10.948) scale(.014 -.014)" d="m313 435h-145v-435h-75v435h-63v65h63v45q0 53 7 88t23 56 42 30 63 9l101-7-1-62q-28 1-51 1.5t-41 0.5q-37 0-52.5-24t-15.5-93v-44h145z"/><path transform="translate(27.174 10.948) scale(.014 -.014)" d="M153 0V718H78V0Z"/><path transform="translate(30.408 10.948) scale(.014 -.014)" d="m50 251q0 69 11.5 118t37.5 80.5 67 46 99 14.5 98.5-14.5 66-46 37-80.5 11.5-118-10.5-118-35.5-81-66-47-102-15-102 15-66 47-35.5 81-10.5 118zm77 2q0-55 5.5-92.5t21-61 42.5-34 69-10.5 68.5 10 41.5 33.5 20.5 61 5.5 92.5-6.5 92-22.5 59.5-42 32-65 9.5-65.5-9.5-42.5-32-23-59-7-91.5z"/><path transform="translate(37.8 10.948) scale(.014 -.014)" d="M150 0H275L381 391L487 0H612L731 500H656L556 65H539L420 490H342L223 65H207L106 500H31Z"/><path transform="translate(48.468 10.948) scale(.014 -.014)" d="m412 62 29 3 2-59q-57-8-105.5-12t-89.5-4q-108 0-153 62.5t-45 194.5q0 263 209 263 102 0 151.5-56.5t49.5-177.5l-4-57h-330q0-84 30-123.5t105-39.5 151 6zm-287 217h260q0 92-29.5 130t-95.5 38q-67 0-100.5-40t-34.5-128z"/><path transform="translate(55.538 10.948) scale(.014 -.014)" d="m147 0h-75v500h74v-68q86 59 183 79v-76q-21-4-43.5-11t-44-14.5-39.5-15.5-30-14l-25-13z"/></svg>

<?xml version="1.0" encoding="utf-8" ?>
<svg baseProfile="tiny" height="100%" version="1.2" width="100%" xmlns="http://www.w3.org/2000/svg" xmlns:ev="http://www.w3.org/2001/xml-events" xmlns:xlink="http://www.w3.org/1999/xlink"><defs /><g><path d="M276 635Q126 635 126 522Q126 491 133.5 470.5Q141 450 160.5 435.5Q180 421 214.0 411.0Q248 401 301 389Q354 377 390.5 363.0Q427 349 450.0 328.0Q473 307 483.5 277.0Q494 247 494 204Q494 -9 273 -9Q236 -9 190.5 -4.5Q145 0 90 8L54 13L62 77Q199 59 269 59Q417 59 417 198Q417 226 409.5 245.5Q402 265 384.5 278.5Q367 292 337.5 301.5Q308 311 263 320Q205 332 164.0 347.0Q123 362 97.0 384.5Q71 407 59.5 439.0Q48 471 48 517Q48 703 271 703Q344 703 446 688L480 683L473 618Q403 626 354.0 630.5Q305 635 276 635Z" transform="translate(0.0, 72) scale(0.072, -0.072)" /><path d="M384 94V500H459V0H384V35Q309 -10 236 -10Q185 -10 152.0 2.0Q119 14 100.5 43.0Q82 72 74.5 119.5Q67 167 67 239V500H142V240Q142 186 146.0 150.5Q150 115 161.0 94.0Q172 73 193.0 65.0Q214 57 247 57Q280 57 314.0 66.5Q348 76 366 85Z" transform="translate(39.023999999999994, 72) scale(0.072, -0.072)" /><path d="M147 406V0H72V500H146V465Q227 510 301 510Q351 510 383.5 497.5Q416 485 435.5 456.0Q455 427 462.5 380.0Q470 333 470 264V0H396V262Q396 314 391.5 349.0Q387 384 375.0 405.0Q363 426 342.0 434.5Q321 443 288 443Q256 443 220.5 433.5Q185 424 166 415Z" transform="translate(77.256, 72) scale(0.072, -0.072)" /><path d="M313 435H168V0H93V435H30V500H93V545Q93 598 100.0 633.0Q107 668 123.0 689.0Q139 710 165.0 719.0Q191 728 228 728L329 721L328 659Q300 660 277.0 660.5Q254 661 236 661Q199 661 183.5 637.0Q168 613 168 544V500H313Z" transform="translate(115.91999999999999, 72) scale(0.072, -0.072)" /><path d="M153 0V718H78V0Z" transform="translate(139.75199999999998, 72) scale(0.072, -0.072)" /><path d="M50 251Q50 320 61.5 369.0Q73 418 99.0 449.5Q125 481 166.0 495.5Q207 510 265 510Q323 510 363.5 495.5Q404 481 429.5 449.5Q455 418 466.5 369.0Q478 320 478 251Q478 182 467.5 133.0Q457 84 432.0 52.0Q407 20 366.0 5.0Q325 -10 264 -10Q203 -10 162.0 5.0Q121 20 96.0 52.0Q71 84 60.5 133.0Q50 182 50 251ZM127 253Q127 198 132.5 160.5Q138 123 153.5 99.5Q169 76 196.0 65.5Q223 55 265 55Q307 55 333.5 65.0Q360 75 375.0 98.5Q390 122 395.5 159.5Q401 197 401 252Q401 307 394.5 344.0Q388 381 372.0 403.5Q356 426 330.0 435.5Q304 445 265 445Q226 445 199.5 435.5Q173 426 157.0 403.5Q141 381 134.0 344.5Q127 308 127 253Z" transform="translate(156.384, 72) scale(0.072, -0.072)" /><path d="M150 0H275L381 391L487 0H612L731 500H656L556 65H539L420 490H342L223 65H207L106 500H31Z" transform="translate(194.39999999999998, 72) scale(0.072, -0.072)" /><path d="M412 62 441 65 443 6Q386 -2 337.5 -6.0Q289 -10 248 -10Q140 -10 95.0 52.5Q50 115 50 247Q50 510 259 510Q361 510 410.5 453.5Q460 397 460 276L456 219H126Q126 135 156.0 95.5Q186 56 261 56Q336 56 412 62ZM125 279H385Q385 371 355.5 409.0Q326 447 260 447Q193 447 159.5 407.0Q126 367 125 279Z" transform="translate(249.26399999999998, 72) scale(0.072, -0.072)" /><path d="M147 0H72V500H146V432Q232 491 329 511V435Q308 431 285.5 424.0Q263 417 241.5 409.5Q220 402 202.0 394.0Q184 386 172 380L147 367Z" transform="translate(285.62399999999997, 72) scale(0.072, -0.072)" /></g></svg>
